components/icon/svg/24/food_drink.svg

<?xml version="1.0" encoding="UTF-8"?>
<svg width="24px" height="24px" viewBox="0 0 24 24" version="1.1" xmlns="http://www.w3.org/2000/svg" xmlns:xlink="http://www.w3.org/1999/xlink">
    <!-- Generator: Sketch 64 (93537) - https://sketch.com -->
    <title>ic-db_food_drink_24</title>
    <desc>Created with Sketch.</desc>
    <g id="Symbols:Icon" stroke="none" stroke-width="1" fill="none" fill-rule="evenodd">
        <g id="24dp-Icon/Food/Drink" fill="#282D37">
            <path d="M15,22 L18.259676,22 C19.219876,22 20,21.2027672 20,20.2414425 L20,12.3164703 C20,11.3552456 19.805276,10.3939209 19.430576,9.47945096 L18.400276,6.87690598 C18.119176,6.19691039 18.002076,5.47005997 18.002076,4.74320956 L18.002076,3.99293173 C18.002076,2.8909424 17.135476,2 16.058276,2 L13.927076,2 C12.873176,2 12,2.91436981 12,3.99293173 L12,4.74320956 C12,5.47005997 11.889576,6.19691039 11.607976,6.86789544 L11.279576,7.64300231 C11.021476,8.27714426 11.514176,9.02872361 12.217976,9.02872361 C12.616776,9.02872361 13.015576,8.77042139 13.156376,8.39458166 L13.461376,7.61947479 C13.836676,6.67997557 13.997376,5.72806183 13.997376,4.71978215 L13.997376,4 L16,4 L16,4.71978215 C16,5.72806183 16.182676,6.67997557 16.558076,7.61947479 L17.590376,10.2031977 C17.861476,10.886297 18.002076,11.6131474 18.002076,12.3399978 L18.002076,20 L15,20 C14.4379,20 14,20.4372416 14,21 C14,21.5392309 14.4379,22 15,22 Z M4.98609644,11 L12.0104415,11.0216862 C12.5481313,11.0216862 13.0624042,11.4437176 12.9922535,12.14707 L12.9922535,12.14707 L11.9636079,21.1340511 C11.9169735,21.6255383 11.4735489,22 10.9834899,22 L10.9834899,22 L6.03616593,22 C5.52278977,22 5.1027819,21.6255383 5.05604793,21.1340511 L5.05604793,21.1340511 L4.00597845,12.1 C3.93592731,11.4914872 4.37935199,11 4.98609644,11 L4.98609644,11 Z M6.11370432,13 L6.33780432,15.0193 L7.98030432,15.0193 C8.54330432,15.0193 8.98900432,15.4651 8.98900432,16.0046 C8.98900432,16.5677 8.54330432,17.0134 7.98030432,17.0134 L7.98030432,17.0134 L6.57260432,17.0134 L6.93340432,20.0258 L10.0950043,20.0258 L10.9128043,13.0017 L6.11370432,13 Z" id="🎨-Color"></path>
        </g>
    </g>
</svg>

<svg width="24" height="24" xmlns="http://www.w3.org/2000/svg"><path d="M15 22h3.26c.96 0 1.74-.797 1.74-1.759v-7.925c0-.96-.195-1.922-.57-2.837L18.4 6.877a5.565 5.565 0 01-.398-2.134v-.75C18.002 2.89 17.135 2 16.058 2h-2.13C12.872 2 12 2.914 12 3.993v.75c0 .727-.11 1.454-.392 2.125l-.328.775c-.259.634.234 1.386.938 1.386.399 0 .798-.259.938-.634l.305-.776c.376-.939.536-1.89.536-2.9V4H16v.72c0 1.008.183 1.96.558 2.9l1.032 2.583c.271.683.412 1.41.412 2.137V20H15c-.562 0-1 .437-1 1 0 .54.438 1 1 1zM4.986 11l7.024.022c.538 0 1.052.422.982 1.125l-1.028 8.987c-.047.492-.49.866-.98.866H6.035a.969.969 0 01-.98-.866L4.006 12.1a.966.966 0 01.98-1.1zm1.128 2l.224 2.02H7.98a.996.996 0 110 1.993H6.573l.36 3.013h3.162l.818-7.024-4.8-.002z" fill="#282D37" fill-rule="evenodd"/></svg>
